X:848
T:Sleepy Maggy
R:Reel
B:The Athole Collection
M:C|
L:1/8
K:B Minor
g|:f2Bb fBde|f2Ba eAce|f2Bb fBde|f^gaf eAce:|
|:fBdB fBde|fBdB eAce|fBdB fBde|f^gaf eAce:|
